X: 2979
T: Bass Rock, The
R: reel
M: 4/4
K: Amajor
~A3 e f2 ec|B ~a3 fbaf|e2 af ecAB|cB/A/Bc A ~F3|
AAeA f2 ec|B ~a3 fbaf|eafe c3 e|1 fecB AFEF:|2 fecB AAB/c/d/e/||
a6 e/f/g/a/|b8|a3 b f3 z|ecBA B ~F3|
~a3 e faaf|b3 c' bafe|~a3 e fz af|ecBc ABce|
a2 ef- feaf|-b z2 c' bafe|~a3 e fz af|ecBc A ~F3|
ABce faaf|b3 c' baf z|c'bac' bafz|z efc ecBF||

